img/checkbox-tick.svg

<svg width="12" height="8" viewBox="0 0 12 8" fill="none" xmlns="http://www.w3.org/2000/svg">
<path fill-rule="evenodd" clip-rule="evenodd" d="M11.0398 1.30499L4.77282 7.59999H4.76782C4.68882 7.67999 4.47282 7.85799 4.22382 7.85799C4.04582 7.85799 3.84482 7.75899 3.67582 7.59099L1.05082 4.96599C0.975818 4.89099 0.975818 4.77299 1.05082 4.69799L1.88482 3.86399C1.92282 3.82699 1.96982 3.80799 2.01682 3.80799C2.06382 3.80799 2.10982 3.82699 2.14782 3.86399L4.22882 5.94499L9.94782 0.183991C9.98482 0.146991 10.0318 0.127991 10.0788 0.127991C10.1308 0.127991 10.1778 0.146991 10.2098 0.183991L11.0308 1.03299C11.1148 1.11299 11.1148 1.22999 11.0398 1.30499Z" fill="white"/>
</svg>

<svg width="12" height="8" fill="none" xmlns="http://www.w3.org/2000/svg"><path fill-rule="evenodd" clip-rule="evenodd" d="M11.04 1.305L4.773 7.6h-.005c-.08.08-.295.258-.544.258-.178 0-.38-.099-.548-.267L1.05 4.966a.188.188 0 010-.268l.834-.834a.19.19 0 01.132-.056c.047 0 .093.019.13.056L4.23 5.945 9.948.184a.185.185 0 01.13-.056.17.17 0 01.132.056l.82.849c.085.08.085.197.01.272z" fill="#fff"/></svg>
